; generated by PrusaSlicer 2.2.0+win64 on 2021-09-06 at 01:24:47 UTC

; 

; external perimeters extrusion width = 0.45mm
; perimeters extrusion width = 0.45mm
; infill extrusion width = 0.45mm
; solid infill extrusion width = 0.45mm
; top infill extrusion width = 0.40mm
; support material extrusion width = 0.35mm
; first layer extrusion width = 0.42mm

M73 P0 R9
M73 Q0 S9
M201 X1000 Y1000 Z200 E5000 ; sets maximum accelerations, mm/sec^2
M203 X200 Y200 Z12 E120 ; sets maximum feedrates, mm/sec
M204 P1250 R1250 T1250 ; sets acceleration (P, T) and retract acceleration (R), mm/sec^2
M205 X8.00 Y8.00 Z0.40 E4.50 ; sets the jerk limits, mm/sec
M205 S0 T0 ; sets the minimum extruding and travel feed rate, mm/sec
M107
M862.3 P "MK3S" ; printer model check
M862.1 P0.4 ; nozzle diameter check
M115 U3.9.1 ; tell printer latest fw version
G90 ; use absolute coordinates
M83 ; extruder relative mode
M104 S215 ; set extruder temp
M140 S60 ; set bed temp
M190 S60 ; wait for bed temp
M109 S215 ; wait for extruder temp
G28 W ; home all without mesh bed level
G80 ; mesh bed leveling
G1 Y-3.0 F1000.0 ; go outside print area
G92 E0.0
G1 X60.0 E9.0 F1000.0 ; intro line
M73 Q0 S9
M73 P0 R9
G1 X100.0 E12.5 F1000.0 ; intro line
G92 E0.0
M221 S95

; Don't change E values below. Excessive value can damage the printer.
M907 E430 ; set extruder motor current
G21 ; set units to millimeters
G90 ; use absolute coordinates
M83 ; use relative distances for extrusion
M900 K0.05 ; Filament gcode LA 1.5
M900 K30 ; Filament gcode LA 1.0
;BEFORE_LAYER_CHANGE
G92 E0.0
;0.2


G1 E-0.80000 F2100.00000
G1 Z0.600 F10800.000
;AFTER_LAYER_CHANGE
;0.2
G1 X110.931 Y90.747
G1 Z0.200
G1 E0.80000 F2100.00000
M204 S1000
G1 F1200.000
G1 X111.513 Y90.277 E0.02345
G1 X112.196 Y89.983 E0.02333
G1 X112.938 Y89.883 E0.02345
G1 X137.180 Y90.055 E0.76013
G1 X137.731 Y90.134 E0.01745
G1 X138.251 Y90.320 E0.01733
G1 X138.727 Y90.609 E0.01745
G1 X139.135 Y90.988 E0.01745
G1 X139.492 Y91.502 E0.01963
G1 X139.725 Y92.088 E0.01975
G1 X140.691 Y96.732 E0.14874
G1 X140.704 Y107.025 E0.32272
G1 X139.791 Y117.764 E0.33793
G1 X139.485 Y118.681 E0.03031
G1 X138.884 Y119.432 E0.03018
G1 X138.061 Y119.931 E0.03018
G1 X137.120 Y120.117 E0.03006
G1 X112.894 Y119.947 E0.75962
G1 X112.325 Y119.879 E0.01796
G1 X111.782 Y119.695 E0.01796
G1 X111.286 Y119.400 E0.01809
G1 X110.865 Y119.012 E0.01796
G1 X110.426 Y118.332 E0.02536
G1 X110.203 Y117.555 E0.02536
G1 X109.303 Y107.193 E0.32612
G1 X109.303 Y96.803 E0.32576
G1 X110.243 Y92.046 E0.15204
G1 X110.496 Y91.355 E0.02307
G1 X110.896 Y90.795 E0.02157
G1 X111.175 Y91.037 F10800.000
G1 F1200.000
G1 X111.683 Y90.615 E0.02071
G1 X112.284 Y90.350 E0.02060
G1 X112.939 Y90.260 E0.02071
G1 X137.156 Y90.431 E0.75932
G1 X138.078 Y90.656 E0.02977
G1 X138.842 Y91.226 E0.02989
G1 X139.160 Y91.681 E0.01740
G1 X139.364 Y92.197 E0.01740
G1 X140.317 Y96.777 E0.14668
G1 X140.327 Y107.015 E0.32101
G1 X139.421 Y117.690 E0.33589
G1 X139.163 Y118.483 E0.02614
G1 X138.648 Y119.138 E0.02614
G1 X137.931 Y119.577 E0.02637
G1 X137.105 Y119.740 E0.02637
G1 X112.902 Y119.570 E0.75892
G1 X112.414 Y119.513 E0.01538
G1 X111.946 Y119.355 E0.01550
G1 X111.520 Y119.104 E0.01550
G1 X111.158 Y118.774 E0.01538
G1 X110.769 Y118.176 E0.02237
G1 X110.575 Y117.493 E0.02225
G1 X109.678 Y107.160 E0.32521
G1 X109.678 Y96.852 E0.32320
G1 X110.609 Y92.139 E0.15061
G1 X110.803 Y91.583 E0.01846
G1 X111.141 Y91.087 E0.01883
; printing object Mount_FrSky_R-XSR_Tiny_16.STL id:0 copy 0
G1 F8640.000
G1 X111.683 Y90.615 E-0.16590
G1 X112.284 Y90.350 E-0.15167
G1 X112.939 Y90.260 E-0.15254
G1 X114.194 Y90.269 E-0.28989
G1 E-0.04000 F2100.00000
G1 Z0.800 F10800.000
G1 X112.933 Y92.637
G1 Z0.200
G1 E0.80000 F2100.00000
G1 F1200.000
G1 X112.933 Y96.586 E0.12383
G1 X113.688 Y96.586 E0.02365
G1 X113.688 Y92.807 E0.11851
G1 X114.442 Y92.807 E0.02365
G1 X114.442 Y96.586 E0.11851
G1 X115.196 Y96.586 E0.02365
G1 X115.196 Y92.807 E0.11851
G1 X115.950 Y92.807 E0.02365
G1 X115.950 Y96.586 E0.11851
G1 X116.704 Y96.586 E0.02365
G1 X116.704 Y92.807 E0.11851
G1 X117.458 Y92.807 E0.02365
G1 X117.458 Y103.520 E0.33592
G1 F8640.000
G1 X117.458 Y100.229 E-0.76000
G1 E-0.04000 F2100.00000
G1 Z0.800 F10800.000
G1 X115.196 Y102.881
G1 Z0.200
G1 E0.80000 F2100.00000
G1 F1200.000
G1 X115.196 Y101.118 E0.05527
G1 F8640.000
G1 X115.196 Y102.881 E-0.40700
G1 E-0.39300 F2100.00000
G1 Z0.800 F10800.000
G1 X118.408 Y95.633
G1 Z0.200
G1 E0.80000 F2100.00000
G1 F1200.000
G1 X118.408 Y100.386 E0.12135
G1 X118.915 Y100.386 E0.01295
G1 X118.915 Y95.772 E0.11782
G1 X119.422 Y95.772 E0.01295
G1 X119.422 Y100.386 E0.11782
G1 X119.929 Y100.386 E0.01295
G1 X119.929 Y95.772 E0.11782
G1 X120.436 Y95.772 E0.01295
G1 X120.436 Y100.386 E0.11782
G1 X120.943 Y100.386 E0.01295
G1 X120.943 Y95.772 E0.11782
G1 X121.450 Y95.772 E0.01295
G1 X121.450 Y100.386 E0.11782
G1 X121.958 Y100.386 E0.01295
G1 X121.958 Y95.772 E0.11782
G1 X122.465 Y95.772 E0.01295
G1 X122.465 Y100.386 E0.11782
G1 X122.972 Y100.386 E0.01295
G1 X122.972 Y95.772 E0.11782
G1 X123.479 Y95.772 E0.01295
G1 X123.479 Y100.386 E0.11782
G1 X123.986 Y100.386 E0.01295
G1 X123.986 Y95.772 E0.11782
G1 X124.493 Y95.772 E0.01295
G1 X124.493 Y100.386 E0.11782
G1 X125.000 Y100.386 E0.01295
G1 X125.000 Y95.772 E0.11782
G1 X125.507 Y95.772 E0.01295
G1 X125.507 Y100.386 E0.11782
G1 X126.014 Y100.386 E0.01295
G1 X126.014 Y95.772 E0.11782
G1 X126.521 Y95.772 E0.01295
G1 X126.521 Y100.386 E0.11782
G1 X127.028 Y100.386 E0.01295
G1 X127.028 Y95.772 E0.11782
G1 X127.535 Y95.772 E0.01295
G1 X127.535 Y100.386 E0.11782
G1 X128.042 Y100.386 E0.01295
G1 X128.042 Y95.772 E0.11782
G1 X128.550 Y95.772 E0.01295
G1 X128.550 Y100.386 E0.11782
G1 X129.057 Y100.386 E0.01295
G1 X129.057 Y95.772 E0.11782
G1 X129.564 Y95.772 E0.01295
G1 X129.564 Y100.386 E0.11782
G1 X130.071 Y100.386 E0.01295
G1 X130.071 Y95.772 E0.11782
G1 X130.578 Y95.772 E0.01295
G1 X130.578 Y100.386 E0.11782
G1 X131.085 Y100.386 E0.01295
G1 X131.085 Y95.772 E0.11782
G1 X131.592 Y95.772 E0.01295
G1 X131.592 Y100.524 E0.12135
G1 X131.787 Y103.520 F10800.000
G1 F1200.000
G1 X131.787 Y100.728 E0.08756
G1 X131.033 Y100.728 E0.02365
G1 X131.033 Y103.351 E0.08224
G1 X130.279 Y103.351 E0.02365
G1 X130.279 Y100.728 E0.08224
G1 X129.525 Y100.728 E0.02365
G1 X129.525 Y103.351 E0.08224
G1 X128.771 Y103.351 E0.02365
G1 X128.771 Y100.728 E0.08224
G1 X128.017 Y100.728 E0.02365
G1 X128.017 Y103.351 E0.08224
G1 X127.262 Y103.351 E0.02365
G1 X127.262 Y100.728 E0.08224
G1 X126.508 Y100.728 E0.02365
G1 X126.508 Y103.351 E0.08224
G1 X125.754 Y103.351 E0.02365
G1 X125.754 Y100.728 E0.08224
G1 X125.000 Y100.728 E0.02365
G1 X125.000 Y103.351 E0.08224
G1 X124.246 Y103.351 E0.02365
G1 X124.246 Y100.728 E0.08224
G1 X123.492 Y100.728 E0.02365
G1 X123.492 Y103.351 E0.08224
G1 X122.738 Y103.351 E0.02365
G1 X122.738 Y100.728 E0.08224
G1 X121.983 Y100.728 E0.02365
G1 X121.983 Y103.351 E0.08224
G1 X121.229 Y103.351 E0.02365
G1 X121.229 Y100.728 E0.08224
G1 X120.475 Y100.728 E0.02365
G1 X120.475 Y103.351 E0.08224
G1 X119.721 Y103.351 E0.02365
G1 X119.721 Y100.728 E0.08224
G1 X118.967 Y100.728 E0.02365
G1 X118.967 Y103.351 E0.08224
G1 X118.213 Y103.351 E0.02365
G1 X118.213 Y100.728 E0.08224
G1 X117.737 Y100.728 E0.01492
G1 X117.737 Y95.430 E0.16613
G1 X118.213 Y95.430 E0.01492
G1 X118.213 Y92.807 E0.08224
G1 X118.967 Y92.807 E0.02365
G1 X118.967 Y95.430 E0.08224
G1 X119.721 Y95.430 E0.02365
G1 X119.721 Y92.807 E0.08224
G1 X120.475 Y92.807 E0.02365
G1 X120.475 Y95.430 E0.08224
G1 X121.229 Y95.430 E0.02365
G1 X121.229 Y92.807 E0.08224
G1 X121.983 Y92.807 E0.02365
G1 X121.983 Y95.430 E0.08224
G1 X122.738 Y95.430 E0.02365
G1 X122.738 Y92.807 E0.08224
G1 X123.492 Y92.807 E0.02365
G1 X123.492 Y95.430 E0.08224
G1 X124.246 Y95.430 E0.02365
G1 X124.246 Y92.807 E0.08224
G1 X125.000 Y92.807 E0.02365
G1 X125.000 Y95.430 E0.08224
G1 X125.754 Y95.430 E0.02365
G1 X125.754 Y92.807 E0.08224
G1 X126.508 Y92.807 E0.02365
G1 X126.508 Y95.430 E0.08224
G1 X127.262 Y95.430 E0.02365
G1 X127.262 Y92.807 E0.08224
G1 X128.017 Y92.807 E0.02365
G1 X128.017 Y95.430 E0.08224
G1 X128.771 Y95.430 E0.02365
G1 X128.771 Y92.807 E0.08224
G1 X129.525 Y92.807 E0.02365
G1 X129.525 Y95.430 E0.08224
G1 X130.279 Y95.430 E0.02365
G1 X130.279 Y92.807 E0.08224
G1 X131.033 Y92.807 E0.02365
G1 X131.033 Y95.430 E0.08224
G1 X131.787 Y95.430 E0.02365
G1 X131.787 Y92.807 E0.08224
G1 X132.542 Y92.807 E0.02365
G1 X132.542 Y103.351 E0.33060
G1 X132.754 Y103.351 E0.00667
G1 X132.754 Y96.829 E0.20449
G1 X132.996 Y96.586 E0.01074
G1 X133.296 Y96.586 E0.00938
G1 X133.296 Y92.807 E0.11851
G1 X134.050 Y92.807 E0.02365
G1 X134.050 Y96.586 E0.11851
G1 X134.804 Y96.586 E0.02365
G1 X134.804 Y92.807 E0.11851
G1 X135.558 Y92.807 E0.02365
G1 X135.558 Y96.586 E0.11851
G1 X136.312 Y96.586 E0.02365
G1 X136.312 Y92.807 E0.11851
G1 X137.067 Y92.807 E0.02365
G1 X137.067 Y96.756 E0.12383
G1 F8640.000
G1 X137.067 Y93.465 E-0.76000
G1 E-0.04000 F2100.00000
G1 Z0.800 F10800.000
G1 X134.804 Y101.118
G1 Z0.200
G1 E0.80000 F2100.00000
G1 F1200.000
G1 X134.804 Y102.881 E0.05527
G1 F8640.000
G1 X134.804 Y101.118 E-0.40700
G1 E-0.39300 F2100.00000
G1 Z0.800 F10800.000
G1 X137.067 Y117.363
G1 Z0.200
G1 E0.80000 F2100.00000
G1 F1200.000
G1 X137.067 Y108.956 E0.26358
G1 X136.312 Y108.956 E0.02365
G1 X136.312 Y117.193 E0.25826
G1 X135.558 Y117.193 E0.02365
G1 X135.558 Y108.956 E0.25826
G1 X135.134 Y108.956 E0.01329
G1 X134.804 Y109.392 E0.01715
G1 X134.804 Y117.193 E0.24459
G1 X134.050 Y117.193 E0.02365
G1 X134.050 Y111.467 E0.17953
G1 X134.014 Y111.966 E0.01567
G1 X134.014 Y113.171 E0.03780
G1 X133.771 Y113.414 E0.01074
G1 X133.296 Y113.414 E0.01491
G1 X133.296 Y117.193 E0.11851
G1 X132.542 Y117.193 E0.02365
G1 X132.542 Y108.956 E0.25826
G1 X131.787 Y108.956 E0.02365
G1 X131.787 Y117.193 E0.25826
G1 X131.033 Y117.193 E0.02365
G1 X131.033 Y108.956 E0.25826
G1 X130.279 Y108.956 E0.02365
G1 X130.279 Y117.193 E0.25826
G1 X129.525 Y117.193 E0.02365
G1 X129.525 Y108.956 E0.25826
G1 X128.771 Y108.956 E0.02365
G1 X128.771 Y117.193 E0.25826
G1 X128.017 Y117.193 E0.02365
G1 X128.017 Y108.956 E0.25826
G1 X127.262 Y108.956 E0.02365
G1 X127.262 Y117.193 E0.25826
G1 X126.508 Y117.193 E0.02365
G1 X126.508 Y108.956 E0.25826
G1 X125.754 Y108.956 E0.02365
G1 X125.754 Y117.193 E0.25826
G1 X125.000 Y117.193 E0.02365
G1 X125.000 Y108.956 E0.25826
G1 X124.246 Y108.956 E0.02365
G1 X124.246 Y117.193 E0.25826
G1 X123.492 Y117.193 E0.02365
G1 X123.492 Y108.956 E0.25826
G1 X122.738 Y108.956 E0.02365
G1 X122.738 Y117.193 E0.25826
G1 X121.983 Y117.193 E0.02365
G1 X121.983 Y108.956 E0.25826
G1 X121.229 Y108.956 E0.02365
G1 X121.229 Y117.193 E0.25826
G1 X120.475 Y117.193 E0.02365
G1 X120.475 Y108.956 E0.25826
G1 X119.721 Y108.956 E0.02365
G1 X119.721 Y117.193 E0.25826
G1 X118.967 Y117.193 E0.02365
G1 X118.967 Y108.956 E0.25826
G1 X118.213 Y108.956 E0.02365
G1 X118.213 Y117.193 E0.25826
G1 X117.458 Y117.193 E0.02365
G1 X117.458 Y108.956 E0.25826
G1 X117.246 Y108.956 E0.00667
G1 X117.246 Y113.171 E0.13216
G1 X117.004 Y113.414 E0.01074
G1 X116.704 Y113.414 E0.00938
G1 X116.704 Y117.193 E0.11851
G1 X115.950 Y117.193 E0.02365
G1 X115.938 Y111.296 E0.18490
G1 X115.796 Y110.651 E0.02073
G1 X115.563 Y110.033 E0.02069
G1 X115.196 Y109.394 E0.02310
G1 X115.196 Y117.193 E0.24452
G1 X114.442 Y117.193 E0.02365
G1 X114.442 Y108.956 E0.25826
G1 X113.688 Y108.956 E0.02365
G1 X113.688 Y117.193 E0.25826
G1 X112.933 Y117.193 E0.02365
G1 X112.933 Y108.787 E0.26358
G1 F8640.000
G1 X112.933 Y112.078 E-0.76000
G1 E-0.04000 F2100.00000
G1 Z0.800 F10800.000
G1 X112.969 Y106.385
G1 Z0.200
G1 E0.80000 F2100.00000
G1 F1200.000
G1 X112.837 Y106.358 E0.00421
G1 X112.837 Y97.787 E0.26874
G1 X116.045 Y97.787 E0.10059
G1 X116.052 Y100.023 E0.07011
G1 X116.083 Y100.455 E0.01358
G1 X115.834 Y100.284 E0.00948
G1 X115.503 Y100.133 E0.01142
G1 X114.986 Y100.061 E0.01636
G1 X114.525 Y100.118 E0.01458
G1 X114.201 Y100.232 E0.01075
G1 X113.914 Y100.393 E0.01033
G1 X113.658 Y100.599 E0.01032
G1 X113.436 Y100.852 E0.01053
G1 X113.252 Y101.167 E0.01145
G1 X113.145 Y101.432 E0.00896
G1 X113.076 Y101.754 E0.01032
G1 X113.062 Y102.082 E0.01032
G1 X113.104 Y102.409 E0.01032
G1 X113.200 Y102.723 E0.01032
G1 X113.348 Y103.017 E0.01032
G1 X113.544 Y103.282 E0.01032
G1 X113.781 Y103.509 E0.01032
G1 X114.054 Y103.694 E0.01032
G1 X114.355 Y103.829 E0.01033
G1 X114.676 Y103.912 E0.01040
G1 X115.008 Y103.937 E0.01045
G1 X115.349 Y103.902 E0.01073
G1 X115.679 Y103.795 E0.01087
G1 X115.989 Y103.622 E0.01114
G1 X116.084 Y103.533 E0.00408
G1 X116.052 Y103.977 E0.01395
G1 X116.045 Y104.998 E0.03203
G1 X116.054 Y108.557 E0.11158
G1 X115.753 Y108.142 E0.01607
G1 X115.159 Y107.555 E0.02621
G1 X114.487 Y107.060 E0.02614
G1 X113.752 Y106.668 E0.02612
G1 X113.025 Y106.405 E0.02424
G1 F8640.000
G1 X112.837 Y106.358 E-0.04479
G1 X112.837 Y103.261 E-0.71521
G1 E-0.04000 F2100.00000
G1 Z0.800 F10800.000
G1 X114.371 Y103.423
G1 Z0.200
G1 E0.80000 F2100.00000
G1 F1200.000
G1 X114.239 Y103.363 E0.00455
G1 X114.019 Y103.215 E0.00831
G1 X113.828 Y103.032 E0.00830
G1 X113.670 Y102.819 E0.00830
G1 X113.551 Y102.582 E0.00830
G1 X113.474 Y102.329 E0.00830
G1 X113.440 Y102.066 E0.00830
G1 X113.451 Y101.802 E0.00830
G1 X113.507 Y101.543 E0.00830
G1 X113.591 Y101.333 E0.00708
G1 X113.743 Y101.073 E0.00944
G1 X113.920 Y100.873 E0.00838
G1 X114.126 Y100.706 E0.00830
G1 X114.357 Y100.577 E0.00831
G1 X114.611 Y100.488 E0.00846
G1 X114.983 Y100.442 E0.01175
G1 X115.397 Y100.499 E0.01309
G1 X115.648 Y100.613 E0.00865
G1 X115.872 Y100.767 E0.00852
G1 X116.043 Y100.977 E0.00851
G1 X116.162 Y101.199 E0.00788
G1 X116.302 Y101.607 E0.01353
G1 X116.350 Y101.827 E0.00707
G1 X116.360 Y102.058 E0.00724
G1 X116.330 Y102.288 E0.00729
G1 X116.201 Y102.687 E0.01314
G1 X116.115 Y102.917 E0.00770
G1 X115.960 Y103.132 E0.00829
G1 X115.765 Y103.316 E0.00842
G1 X115.527 Y103.448 E0.00851
G1 X115.271 Y103.531 E0.00846
G1 X115.003 Y103.559 E0.00844
G1 X114.737 Y103.539 E0.00835
G1 X114.425 Y103.448 E0.01019
G1 X114.259 Y103.516 F10800.000
G1 F8640.000
G1 X114.239 Y103.363 E-0.04735
G1 X114.019 Y103.215 E-0.06117
G1 X113.828 Y103.032 E-0.06116
G1 X113.670 Y102.819 E-0.06115
G1 X113.551 Y102.582 E-0.06115
G1 X113.474 Y102.329 E-0.06115
G1 X113.440 Y102.066 E-0.06115
G1 X113.451 Y101.802 E-0.06115
G1 X113.507 Y101.543 E-0.06115
G1 X113.591 Y101.333 E-0.05215
G1 X113.743 Y101.073 E-0.06948
G1 X113.920 Y100.873 E-0.06172
G1 X114.054 Y100.764 E-0.04004
G1 E-0.04000 F2100.00000
G1 Z0.800 F10800.000
G1 X112.460 Y106.666
G1 Z0.200
G1 E0.80000 F2100.00000
G1 F1200.000
G1 X112.460 Y97.410 E0.29020
G1 X116.422 Y97.410 E0.12423
G1 X116.429 Y100.008 E0.08147
G1 X116.466 Y100.524 E0.01621
G1 X116.622 Y101.516 E0.03150
G1 X116.622 Y102.484 E0.03033
G1 X116.466 Y103.476 E0.03151
G1 X116.429 Y103.992 E0.01621
G1 X116.422 Y104.999 E0.03160
G1 X116.429 Y108.507 E0.10998
G1 X116.462 Y109.024 E0.01623
G1 X116.622 Y110.017 E0.03154
G1 X116.610 Y112.525 E0.07863
G1 X116.610 Y111.942 E0.01826
G1 X116.557 Y111.211 E0.02299
G1 X116.397 Y110.481 E0.02342
G1 X116.262 Y110.120 E0.01210
G1 X116.164 Y109.711 E0.01316
G1 X115.931 Y109.050 E0.02198
G1 X115.681 Y108.679 E0.01404
G1 X115.467 Y108.390 E0.01126
G1 X114.913 Y107.842 E0.02445
G1 X114.286 Y107.380 E0.02442
G1 X113.599 Y107.013 E0.02442
G1 X112.866 Y106.749 E0.02442
G1 X112.519 Y106.678 E0.01112
G1 X112.693 Y106.341 F10800.000
G1 F8640.000
G1 X112.498 Y103.386 E-0.76000
G1 E-0.04000 F2100.00000
G1 Z0.800 F10800.000
G1 X114.361 Y106.865
G1 Z0.200
G1 E0.80000 F2100.00000
G1 F1200.000
G1 X113.120 Y105.623 E0.05756
G1 X113.120 Y105.066 E0.01828
G1 X115.769 Y107.715 E0.12284
G1 X115.768 Y107.156 E0.01833
G1 X113.120 Y104.508 E0.12278
G1 X113.120 Y103.951 E0.01828
G1 X115.766 Y106.597 E0.12271
G1 X115.765 Y106.038 E0.01833
G1 X113.276 Y103.549 E0.11541
G1 X113.379 Y103.515 E0.00355
G1 X113.603 Y103.730 E0.01019
G1 X113.916 Y103.942 E0.01238
G1 X114.260 Y104.097 E0.01239
G1 X114.424 Y104.139 E0.00554
G1 X115.764 Y105.479 E0.06212
G1 X115.763 Y104.921 E0.01831
G1 X115.058 Y104.216 E0.03267
G1 X115.407 Y104.180 E0.01150
G1 X115.538 Y104.138 E0.00450
