; generated by PrusaSlicer 2.2.0+win64 on 2021-09-06 at 02:24:03 UTC

; 

; external perimeters extrusion width = 0.45mm
; perimeters extrusion width = 0.45mm
; infill extrusion width = 0.45mm
; solid infill extrusion width = 0.45mm
; top infill extrusion width = 0.40mm
; support material extrusion width = 0.35mm
; first layer extrusion width = 0.42mm

M73 P0 R12
M73 Q0 S12
M201 X1000 Y1000 Z200 E5000 ; sets maximum accelerations, mm/sec^2
M203 X200 Y200 Z12 E120 ; sets maximum feedrates, mm/sec
M204 P1250 R1250 T1250 ; sets acceleration (P, T) and retract acceleration (R), mm/sec^2
M205 X8.00 Y8.00 Z0.40 E4.50 ; sets the jerk limits, mm/sec
M205 S0 T0 ; sets the minimum extruding and travel feed rate, mm/sec
M107
M862.3 P "MK3S" ; printer model check
M862.1 P0.4 ; nozzle diameter check
M115 U3.9.1 ; tell printer latest fw version
G90 ; use absolute coordinates
M83 ; extruder relative mode
M104 S215 ; set extruder temp
M140 S60 ; set bed temp
M190 S60 ; wait for bed temp
M109 S215 ; wait for extruder temp
G28 W ; home all without mesh bed level
G80 ; mesh bed leveling
G1 Y-3.0 F1000.0 ; go outside print area
G92 E0.0
G1 X60.0 E9.0 F1000.0 ; intro line
M73 Q0 S12
M73 P0 R12
G1 X100.0 E12.5 F1000.0 ; intro line
G92 E0.0
M221 S95

; Don't change E values below. Excessive value can damage the printer.
M907 E430 ; set extruder motor current
G21 ; set units to millimeters
G90 ; use absolute coordinates
M83 ; use relative distances for extrusion
M900 K0.05 ; Filament gcode LA 1.5
M900 K30 ; Filament gcode LA 1.0
;BEFORE_LAYER_CHANGE
G92 E0.0
;0.2


G1 E-0.80000 F2100.00000
G1 Z0.600 F10800.000
;AFTER_LAYER_CHANGE
;0.2
G1 X109.316 Y94.934
G1 Z0.200
G1 E0.80000 F2100.00000
M204 S1000
G1 F1200.000
G1 X110.053 Y94.703 E0.02422
G1 X115.418 Y94.248 E0.16884
G1 X134.467 Y94.246 E0.59725
G1 X139.803 Y94.683 E0.16787
G1 X140.671 Y94.928 E0.02828
G1 X141.139 Y95.207 E0.01707
G1 X141.541 Y95.571 E0.01701
G1 X143.723 Y97.984 E0.10200
G1 X144.186 Y98.805 E0.02955
G1 X144.346 Y99.705 E0.02866
G1 X144.344 Y117.465 E0.55687
G1 X144.267 Y118.017 E0.01745
G1 X144.081 Y118.541 E0.01745
G1 X143.795 Y119.015 E0.01733
G1 X143.418 Y119.424 E0.01745
G1 X142.594 Y119.928 E0.03031
G1 X141.646 Y120.117 E0.03031
G1 X108.392 Y120.117 E1.04264
G1 X107.819 Y120.053 E0.01809
G1 X107.271 Y119.871 E0.01809
G1 X106.773 Y119.579 E0.01809
G1 X106.347 Y119.190 E0.01809
G1 X105.851 Y118.384 E0.02968
G1 X105.656 Y117.458 E0.02968
G1 X105.667 Y99.462 E0.56425
G1 X105.836 Y98.746 E0.02307
G1 X106.187 Y98.099 E0.02307
G1 X108.672 Y95.361 E0.11593
G1 X109.266 Y94.967 E0.02234
G1 F8640.000
G1 X110.053 Y94.703 E-0.19169
G1 X112.505 Y94.495 E-0.56831
G1 E-0.04000 F2100.00000
G1 Z0.800 F10800.000
G1 X143.740 Y118.380
G1 Z0.200
G1 E0.80000 F2100.00000
G1 F1200.000
G1 X143.156 Y119.153 E0.03036
G1 X142.445 Y119.581 E0.02602
G1 X141.631 Y119.740 E0.02602
G1 X108.393 Y119.740 E1.04214
G1 X107.895 Y119.684 E0.01574
G1 X107.419 Y119.524 E0.01574
G1 X106.987 Y119.268 E0.01574
G1 X106.619 Y118.927 E0.01574
G1 X106.196 Y118.231 E0.02555
G1 X106.032 Y117.433 E0.02555
G1 X106.043 Y99.492 E0.56251
G1 X106.192 Y98.868 E0.02012
G1 X106.505 Y98.304 E0.02024
G1 X108.937 Y95.630 E0.11331
G1 X109.497 Y95.266 E0.02095
G1 X110.136 Y95.072 E0.02095
G1 X115.442 Y94.625 E0.16694
G1 X134.467 Y94.623 E0.59651
G1 X139.751 Y95.057 E0.16626
G1 X140.494 Y95.261 E0.02414
G1 X141.260 Y95.822 E0.02977
G1 X143.423 Y98.212 E0.10106
G1 X143.832 Y98.934 E0.02602
G1 X143.969 Y99.711 E0.02473
G1 X143.967 Y117.443 E0.55598
G1 X143.754 Y118.322 E0.02836
; printing object Mount_FrSky_R-XSR_Tiny_16.STL id:0 copy 0
G1 F8640.000
G1 X143.156 Y119.153 E-0.23635
G1 X142.445 Y119.581 E-0.19163
G1 X141.631 Y119.740 E-0.19163
G1 X141.023 Y119.740 E-0.14040
G1 E-0.04000 F2100.00000
G1 Z0.800 F10800.000
G1 X141.591 Y117.363
G1 Z0.200
G1 E0.80000 F2100.00000
G1 F1200.000
G1 X141.591 Y99.728 E0.55293
G1 X140.837 Y99.728 E0.02365
G1 X140.837 Y117.193 E0.54761
G1 X140.083 Y117.193 E0.02365
G1 X140.083 Y99.728 E0.54761
G1 X139.500 Y99.728 E0.01828
G1 X139.500 Y97.421 E0.07234
G1 X139.329 Y97.421 E0.00537
G1 X139.329 Y117.193 E0.61995
G1 X138.575 Y117.193 E0.02365
G1 X138.575 Y97.421 E0.61995
G1 X137.821 Y97.421 E0.02365
G1 X137.821 Y117.193 E0.61995
G1 X137.067 Y117.193 E0.02365
G1 X137.067 Y97.421 E0.61995
G1 X136.312 Y97.421 E0.02365
G1 X136.312 Y117.193 E0.61995
G1 X135.558 Y117.193 E0.02365
G1 X135.558 Y97.421 E0.61995
G1 X134.804 Y97.421 E0.02365
G1 X134.804 Y117.193 E0.61995
G1 X134.050 Y117.193 E0.02365
G1 X134.050 Y113.414 E0.11851
G1 X133.296 Y113.414 E0.02365
G1 X133.296 Y117.193 E0.11851
G1 X132.542 Y117.193 E0.02365
G1 X132.542 Y113.414 E0.11851
G1 X131.787 Y113.414 E0.02365
G1 X131.787 Y117.363 E0.12383
G1 F8640.000
G1 X131.787 Y114.071 E-0.76000
G1 E-0.04000 F2100.00000
G1 Z0.800 F10800.000
G1 X134.050 Y109.102
G1 Z0.200
G1 E0.80000 F2100.00000
G1 F1200.000
G1 X134.050 Y106.898 E0.06908
G1 F8640.000
G1 X134.050 Y109.102 E-0.50875
G1 E-0.29125 F2100.00000
G1 Z0.800 F10800.000
G1 X115.950 Y106.898
G1 Z0.200
G1 E0.80000 F2100.00000
G1 F1200.000
G1 X115.950 Y109.102 E0.06908
G1 F8640.000
G1 X115.950 Y106.898 E-0.50875
G1 E-0.29125 F2100.00000
G1 Z0.800 F10800.000
G1 X118.213 Y117.363
G1 Z0.200
G1 E0.80000 F2100.00000
G1 F1200.000
G1 X118.213 Y113.414 E0.12383
G1 X117.458 Y113.414 E0.02365
G1 X117.458 Y117.193 E0.11851
G1 X116.704 Y117.193 E0.02365
G1 X116.704 Y113.414 E0.11851
G1 X115.950 Y113.414 E0.02365
G1 X115.950 Y117.193 E0.11851
G1 X115.196 Y117.193 E0.02365
G1 X115.196 Y97.421 E0.61995
G1 X114.442 Y97.421 E0.02365
G1 X114.442 Y117.193 E0.61995
G1 X113.688 Y117.193 E0.02365
G1 X113.688 Y97.421 E0.61995
G1 X112.933 Y97.421 E0.02365
G1 X112.933 Y117.193 E0.61995
G1 X112.179 Y117.193 E0.02365
G1 X112.179 Y97.421 E0.61995
G1 X111.425 Y97.421 E0.02365
G1 X111.425 Y117.193 E0.61995
G1 X110.671 Y117.193 E0.02365
G1 X110.671 Y97.421 E0.61995
G1 X110.500 Y97.421 E0.00537
G1 X110.500 Y99.728 E0.07234
G1 X109.917 Y99.728 E0.01827
G1 X109.917 Y117.193 E0.54761
G1 X109.163 Y117.193 E0.02365
G1 X109.163 Y99.728 E0.54761
G1 X108.409 Y99.728 E0.02365
G1 X108.409 Y117.363 E0.55293
G1 F8640.000
G1 X108.409 Y114.071 E-0.76000
G1 E-0.04000 F2100.00000
G1 Z0.800 F10800.000
G1 X116.754 Y112.213
G1 Z0.200
G1 E0.80000 F2100.00000
G1 F1200.000
G1 X116.753 Y109.762 E0.07684
G1 X116.943 Y109.554 E0.00885
G1 X117.073 Y109.376 E0.00689
G1 X117.268 Y109.026 E0.01257
G1 X117.409 Y108.628 E0.01325
G1 X117.481 Y108.211 E0.01325
G1 X117.481 Y107.789 E0.01325
G1 X117.409 Y107.372 E0.01325
G1 X117.268 Y106.974 E0.01325
G1 X117.073 Y106.624 E0.01257
G1 X116.942 Y106.445 E0.00695
G1 X116.753 Y106.238 E0.00879
G1 X116.755 Y97.787 E0.26497
G1 X133.246 Y97.787 E0.51707
G1 X133.248 Y106.238 E0.26496
G1 X133.057 Y106.446 E0.00886
G1 X132.927 Y106.624 E0.00689
G1 X132.732 Y106.974 E0.01257
G1 X132.591 Y107.372 E0.01325
G1 X132.519 Y107.789 E0.01325
G1 X132.519 Y108.211 E0.01325
G1 X132.591 Y108.628 E0.01325
G1 X132.732 Y109.026 E0.01325
G1 X132.927 Y109.376 E0.01257
G1 X133.058 Y109.555 E0.00695
G1 X133.247 Y109.762 E0.00877
G1 X133.246 Y112.213 E0.07685
G1 X116.814 Y112.213 E0.51520
G1 X116.377 Y112.590 F10800.000
G1 F1200.000
G1 X116.375 Y109.594 E0.09395
G1 X116.648 Y109.318 E0.01216
G1 X116.755 Y109.172 E0.00567
G1 X116.924 Y108.870 E0.01083
G1 X117.043 Y108.533 E0.01124
G1 X117.104 Y108.179 E0.01124
G1 X117.104 Y107.821 E0.01124
G1 X117.043 Y107.467 E0.01124
G1 X116.924 Y107.130 E0.01124
G1 X116.755 Y106.828 E0.01083
G1 X116.647 Y106.681 E0.00572
G1 X116.375 Y106.406 E0.01211
G1 X116.378 Y97.410 E0.28208
G1 X133.623 Y97.410 E0.54070
G1 X133.625 Y106.406 E0.28207
G1 X133.352 Y106.682 E0.01216
G1 X133.245 Y106.828 E0.00567
G1 X133.076 Y107.130 E0.01083
G1 X132.957 Y107.467 E0.01124
G1 X132.896 Y107.821 E0.01124
G1 X132.896 Y108.179 E0.01124
G1 X132.957 Y108.533 E0.01124
G1 X133.076 Y108.870 E0.01124
G1 X133.245 Y109.172 E0.01083
G1 X133.353 Y109.319 E0.00572
G1 X133.624 Y109.593 E0.01210
G1 X133.622 Y112.590 E0.09396
G1 X116.437 Y112.590 E0.53883
G1 X116.557 Y112.233 F10800.000
G1 F8640.000
G1 X116.375 Y109.594 E-0.69202
G1 X116.582 Y109.384 E-0.06798
G1 E-0.04000 F2100.00000
G1 Z0.800 F10800.000
G1 X133.133 Y98.666
G1 Z0.200
G1 E0.80000 F2100.00000
G1 F1200.000
G1 X132.536 Y98.070 E0.02658
G1 X132.001 Y98.070 E0.01688
G1 X132.963 Y99.033 E0.04289
G1 X132.964 Y99.568 E0.01688
G1 X131.465 Y98.070 E0.06677
G1 X130.929 Y98.070 E0.01688
G1 X132.964 Y100.104 E0.09064
G1 X132.964 Y100.640 E0.01688
G1 X130.393 Y98.070 E0.11452
G1 X129.857 Y98.070 E0.01688
G1 X132.964 Y101.176 E0.13839
G1 X132.964 Y101.712 E0.01688
G1 X129.322 Y98.070 E0.16227
G1 X128.786 Y98.070 E0.01688
G1 X132.964 Y102.248 E0.18615
G1 X132.964 Y102.784 E0.01688
G1 X128.250 Y98.070 E0.21002
G1 X127.714 Y98.070 E0.01688
G1 X132.964 Y103.320 E0.23390
G1 X132.964 Y103.856 E0.01688
G1 X127.178 Y98.070 E0.25777
G1 X126.643 Y98.070 E0.01688
G1 X132.964 Y104.392 E0.28165
G1 X132.965 Y104.928 E0.01688
G1 X126.107 Y98.070 E0.30552
G1 X125.571 Y98.070 E0.01688
G1 X132.965 Y105.463 E0.32940
G1 X132.965 Y105.999 E0.01688
G1 X125.035 Y98.070 E0.35328
G1 X124.499 Y98.070 E0.01688
G1 X132.778 Y106.349 E0.36884
G1 X132.572 Y106.679 E0.01225
G1 X123.964 Y98.070 E0.38354
G1 X123.428 Y98.070 E0.01688
G1 X132.405 Y107.047 E0.39997
G1 X132.316 Y107.300 E0.00845
G1 X132.288 Y107.465 E0.00527
G1 X122.892 Y98.070 E0.41859
G1 X122.356 Y98.070 E0.01688
G1 X132.236 Y107.950 E0.44018
G1 X132.236 Y108.235 E0.00900
G1 X132.288 Y108.538 E0.00966
G1 X121.820 Y98.070 E0.46636
G1 X121.285 Y98.070 E0.01688
G1 X132.618 Y109.404 E0.50495
G1 X132.839 Y109.735 E0.01253
G1 X132.964 Y109.871 E0.00583
G1 X132.964 Y110.285 E0.01303
G1 X120.749 Y98.070 E0.54421
G1 X120.213 Y98.070 E0.01688
G1 X132.964 Y110.820 E0.56807
M73 Q8 S11
M73 P8 R11
G1 X132.963 Y111.356 E0.01687
G1 X119.677 Y98.070 E0.59192
G1 X119.141 Y98.070 E0.01688
G1 X132.963 Y111.891 E0.61578
G1 X132.963 Y111.930 E0.00122
G1 X132.466 Y111.930 E0.01566
G1 X118.606 Y98.070 E0.61750
G1 X118.070 Y98.070 E0.01688
G1 X131.930 Y111.930 E0.61750
G1 X131.394 Y111.930 E0.01688
G1 X117.534 Y98.070 E0.61750
G1 X117.037 Y98.070 E0.01564
G1 X117.037 Y98.109 E0.00123
G1 X130.858 Y111.930 E0.61576
G1 X130.323 Y111.930 E0.01688
G1 X117.037 Y98.645 E0.59189
G1 X117.037 Y99.180 E0.01688
G1 X129.787 Y111.930 E0.56803
G1 X129.251 Y111.930 E0.01688
G1 X117.037 Y99.716 E0.54416
G1 X117.037 Y100.252 E0.01688
G1 X128.715 Y111.930 E0.52030
G1 X128.179 Y111.930 E0.01688
G1 X117.037 Y100.787 E0.49643
G1 X117.037 Y101.323 E0.01688
G1 X127.644 Y111.930 E0.47257
G1 X127.108 Y111.930 E0.01688
G1 X117.036 Y101.859 E0.44870
G1 X117.036 Y102.394 E0.01688
G1 X126.572 Y111.930 E0.42484
G1 X126.036 Y111.930 E0.01688
G1 X117.036 Y102.930 E0.40097
G1 X117.036 Y103.466 E0.01688
G1 X125.500 Y111.930 E0.37710
G1 X124.965 Y111.930 E0.01688
G1 X117.036 Y104.001 E0.35324
G1 X117.036 Y104.537 E0.01688
G1 X124.429 Y111.930 E0.32937
G1 X123.893 Y111.930 E0.01688
G1 X117.036 Y105.073 E0.30551
G1 X117.036 Y105.608 E0.01688
G1 X123.357 Y111.930 E0.28164
G1 X122.821 Y111.930 E0.01688
G1 X117.172 Y106.280 E0.25171
G1 X117.311 Y106.470 E0.00743
G1 X117.527 Y106.856 E0.01394
G1 X117.690 Y107.334 E0.01591
G1 X122.286 Y111.930 E0.20475
G1 X121.750 Y111.930 E0.01688
G1 X117.764 Y107.944 E0.17759
G1 X117.764 Y108.235 E0.00918
G1 X117.728 Y108.444 E0.00667
G1 X121.214 Y111.930 E0.15531
G1 X120.678 Y111.930 E0.01688
G1 X117.622 Y108.874 E0.13615
G1 X117.527 Y109.144 E0.00900
G1 X117.466 Y109.253 E0.00397
G1 X120.142 Y111.930 E0.11926
G1 X119.607 Y111.930 E0.01688
G1 X117.267 Y109.590 E0.10425
G1 X117.035 Y109.872 E0.01148
G1 X117.035 Y109.895 E0.00073
G1 X119.071 Y111.930 E0.09068
G1 X118.535 Y111.930 E0.01688
G1 X117.036 Y110.431 E0.06679
G1 X117.036 Y110.967 E0.01689
G1 X117.999 Y111.930 E0.04291
G1 X117.463 Y111.930 E0.01688
G1 X116.867 Y111.333 E0.02659
; stop printing object Mount_FrSky_R-XSR_Tiny_16.STL id:0 copy 0
M106 S255
;BEFORE_LAYER_CHANGE
G92 E0.0
;0.4


G1 F8640.000
G1 X117.463 Y111.930 E-0.19487
G1 X117.999 Y111.930 E-0.12372
G1 X117.036 Y110.967 E-0.31450
G1 X117.036 Y110.431 E-0.12379
G1 X117.045 Y110.440 E-0.00312
G1 E-0.04000 F2100.00000
G1 Z0.800 F10800.000
;AFTER_LAYER_CHANGE
;0.4
G1 X105.851 Y118.384
G1 Z0.400
G1 E0.80000 F2100.00000
G1 F3000.000
G1 X105.656 Y117.458 E0.02968
G1 X105.667 Y99.462 E0.56425
G1 X105.836 Y98.746 E0.02307
G1 X106.187 Y98.099 E0.02307
G1 X108.672 Y95.361 E0.11593
G1 X109.316 Y94.934 E0.02422
G1 X110.053 Y94.703 E0.02422
G1 X115.418 Y94.248 E0.16884
G1 X134.467 Y94.246 E0.59725
G1 X139.803 Y94.683 E0.16787
G1 X140.671 Y94.928 E0.02828
G1 X141.139 Y95.207 E0.01707
G1 X141.541 Y95.571 E0.01701
G1 X143.723 Y97.984 E0.10200
G1 X144.186 Y98.805 E0.02955
G1 X144.346 Y99.705 E0.02866
G1 X144.344 Y117.465 E0.55687
G1 X144.267 Y118.017 E0.01745
G1 X144.081 Y118.541 E0.01745
G1 X143.795 Y119.015 E0.01733
G1 X143.418 Y119.424 E0.01745
G1 X142.594 Y119.928 E0.03031
G1 X141.646 Y120.117 E0.03031
G1 X108.392 Y120.117 E1.04264
G1 X107.819 Y120.053 E0.01809
G1 X107.271 Y119.871 E0.01809
G1 X106.773 Y119.579 E0.01809
G1 X106.347 Y119.190 E0.01809
G1 X105.882 Y118.435 E0.02780
G1 X106.202 Y118.241 F10800.000
G1 F3000.000
G1 X106.032 Y117.433 E0.02590
G1 X106.043 Y99.492 E0.56251
G1 X106.192 Y98.868 E0.02012
G1 X106.505 Y98.304 E0.02024
G1 X108.937 Y95.630 E0.11331
G1 X109.497 Y95.266 E0.02095
G1 X110.136 Y95.072 E0.02095
G1 X115.442 Y94.625 E0.16694
G1 X134.467 Y94.623 E0.59651
G1 X139.751 Y95.057 E0.16626
G1 X140.494 Y95.261 E0.02414
G1 X141.260 Y95.822 E0.02977
G1 X143.423 Y98.212 E0.10106
G1 X143.832 Y98.934 E0.02602
G1 X143.969 Y99.711 E0.02473
G1 X143.967 Y117.443 E0.55598
G1 X143.740 Y118.380 E0.03024
G1 X143.156 Y119.153 E0.03036
G1 X142.445 Y119.581 E0.02602
G1 X141.631 Y119.740 E0.02602
G1 X108.393 Y119.740 E1.04214
G1 X107.895 Y119.684 E0.01574
G1 X107.419 Y119.524 E0.01574
G1 X106.987 Y119.268 E0.01574
G1 X106.619 Y118.927 E0.01574
G1 X106.233 Y118.292 E0.02330
; printing object Mount_FrSky_R-XSR_Tiny_16.STL id:0 copy 0
G1 F8640.000
G1 X106.032 Y117.433 E-0.20384
G1 X106.034 Y115.024 E-0.55616
G1 E-0.04000 F2100.00000
G1 Z1.000 F10800.000
G1 X116.319 Y112.368
G1 Z0.400
G1 E0.80000 F2100.00000
M204 S800
G1 F2700.000
G1 X116.318 Y109.918 E0.08291
G1 X116.484 Y109.800 E0.00689
G1 X116.689 Y109.611 E0.00943
G1 X116.925 Y109.321 E0.01266
G1 X117.126 Y108.963 E0.01388
G1 X117.259 Y108.589 E0.01345
G1 X117.326 Y108.198 E0.01341
G1 X117.326 Y107.802 E0.01341
G1 X117.259 Y107.411 E0.01341
G1 X117.127 Y107.038 E0.01341
G1 X116.933 Y106.692 E0.01341
G1 X116.690 Y106.390 E0.01313
G1 X116.484 Y106.200 E0.00947
G1 X116.318 Y106.082 E0.00690
G1 X116.319 Y97.632 E0.28601
G1 X133.681 Y97.632 E0.58770
G1 X133.682 Y106.082 E0.28601
G1 X133.516 Y106.200 E0.00690
G1 X133.311 Y106.389 E0.00943
G1 X133.075 Y106.679 E0.01266
G1 X132.874 Y107.037 E0.01388
G1 X132.741 Y107.411 E0.01345
G1 X132.674 Y107.802 E0.01341
G1 X132.674 Y108.198 E0.01341
G1 X132.741 Y108.589 E0.01341
G1 X132.873 Y108.962 E0.01341
G1 X133.067 Y109.308 E0.01341
G1 X133.310 Y109.610 E0.01313
G1 X133.516 Y109.800 E0.00947
G1 X133.682 Y109.918 E0.00689
G1 X133.681 Y112.368 E0.08292
G1 X116.379 Y112.368 E0.58567
M204 S1000
G1 F8640.000
G1 X116.318 Y109.918 E-0.56578
G1 X116.484 Y109.800 E-0.04703
G1 X116.689 Y109.611 E-0.06434
G1 X116.915 Y109.332 E-0.08284
G1 E-0.04000 F2100.00000
G1 Z1.000 F10800.000
G1 X116.587 Y109.090
G1 Z0.400
G1 E0.80000 F2100.00000
M204 S800
G1 F1500.000
G1 X116.754 Y108.794 E0.01151
G1 X116.864 Y108.486 E0.01108
G1 X116.919 Y108.163 E0.01107
G1 X116.919 Y107.837 E0.01107
G1 X116.864 Y107.514 E0.01107
G1 X116.755 Y107.206 E0.01107
G1 X116.595 Y106.921 E0.01107
G1 X116.391 Y106.669 E0.01096
G1 X116.227 Y106.516 E0.00760
G1 X115.911 Y106.309 E0.01278
G1 X115.912 Y97.225 E0.30747
G1 X134.088 Y97.225 E0.61525
G1 X134.089 Y106.309 E0.30747
G1 X133.773 Y106.516 E0.01278
G1 X133.609 Y106.669 E0.00758
G1 X133.413 Y106.910 E0.01052
G1 X133.246 Y107.206 E0.01151
G1 X133.136 Y107.514 E0.01108
G1 X133.081 Y107.837 E0.01107
G1 X133.081 Y108.163 E0.01107
G1 X133.136 Y108.486 E0.01107
